X:1
T:Ride B. Loffet
Z:Roger Ngaret (Mai 2001)
R:
C:Trad.
S:Bernard Loffet, 1990
A:Bretagne
M:2/4
L:1/8
K:C
E |: AG AB | c>c Bc | dc AE | AG AB | c>c Bc |1 dc AE :|2 dc A2 |:
e2 Ae | eA B2 | Bd c/B/A | e2 Ae | eA Bd | cB A2 :|
